X:622
T:Reel 622
M:4/4
K:Dmaj
L:1/8
FDDF A2GE|A,>D (3DCD A,FGE|A,DDF A2GF|EDCE GFED|FDD (3DDD A2FD|EDCE GFED|FDDF EF (3cBA |GEFD EFGE|F|d2 (3ABc d2 (3ABc |d2fd cded|cAAB c2cd|edcB cAGE|dc (3ABc d2cd|ecdB cAGE|D2 (3EDE c2 (3ddc | (3ABc GE EDDE|d2Ad d2ed|cAAB cdec|d2dc dfed|cAGE EDDE|dcdc dfed|cAAB cde2|fdec dcAB|cAGE EDD2|
